X: 18567
T: I Looked East And I Looked West
R: polka
M: 2/4
K: Gmajor
|:GB B>G|FA AD|GA Bc|de/d/ cA|
GB B>G|FA A>B|cA FA|G2 G2:|
|:ga/g/ fe|fA A>B|cd ef|g2 fe|
dg fe|fA A>B|cA FA|G2 G2:|

